static/images/1.svg

<svg width="91" height="90" viewBox="0 0 91 90" fill="none" xmlns="http://www.w3.org/2000/svg">
<circle cx="45.2933" cy="44.8874" r="44.8874" fill="#3B72FF"/>
<g filter="url(#filter0_d)">
<path d="M55.1581 53.059C56.5528 53.059 57.5756 53.3379 58.2264 53.8958C58.8773 54.4537 59.2027 55.2905 59.2027 56.4062C59.2027 58.6997 57.8545 59.8464 55.1581 59.8464H39.0263C36.3299 59.8464 34.9817 58.6997 34.9817 56.4062C34.9817 55.2905 35.3071 54.4537 35.958 53.8958C36.6088 53.3379 37.6316 53.059 39.0263 53.059H42.7919V36.2763L39.0728 38.4613C38.5459 38.7712 38.0035 38.9262 37.4456 38.9262C36.5778 38.9262 35.834 38.5543 35.2141 37.8105C34.5943 37.0356 34.2844 36.1833 34.2844 35.2535C34.2844 33.9828 34.8267 33.022 35.9115 32.3712L43.3498 28.0477C44.7135 27.2729 45.9997 26.8854 47.2084 26.8854C48.4481 26.8854 49.4399 27.2574 50.1837 28.0012C50.9586 28.745 51.346 29.7523 51.346 31.023V53.059H55.1581Z" fill="white"/>
<path d="M58.2264 53.8958L57.5756 54.655L57.5756 54.655L58.2264 53.8958ZM35.958 53.8958L36.6088 54.655L36.6088 54.655L35.958 53.8958ZM42.7919 53.059V54.059H43.7919V53.059H42.7919ZM42.7919 36.2763H43.7919V34.529L42.2854 35.4141L42.7919 36.2763ZM39.0728 38.4613L38.5662 37.5991L38.5657 37.5994L39.0728 38.4613ZM35.2141 37.8105L34.4333 38.4351L34.4395 38.443L34.4459 38.4506L35.2141 37.8105ZM35.9115 32.3712L35.4089 31.5065L35.397 31.5137L35.9115 32.3712ZM43.3498 28.0477L42.8558 27.1782L42.8473 27.1831L43.3498 28.0477ZM50.1837 28.0012L49.4766 28.7083L49.4838 28.7155L49.4912 28.7226L50.1837 28.0012ZM51.346 53.059H50.346V54.059H51.346V53.059ZM55.1581 54.059C56.454 54.059 57.1896 54.3242 57.5756 54.655L58.8772 53.1365C57.9615 52.3516 56.6516 52.059 55.1581 52.059V54.059ZM57.5756 54.655C57.9422 54.9692 58.2027 55.4883 58.2027 56.4062H60.2027C60.2027 55.0926 59.8123 53.9381 58.8772 53.1365L57.5756 54.655ZM58.2027 56.4062C58.2027 57.3527 57.9321 57.8942 57.5436 58.2247C57.1242 58.5814 56.3881 58.8464 55.1581 58.8464V60.8464C56.6245 60.8464 57.9107 60.5381 58.8394 59.7481C59.7992 58.9318 60.2027 57.7533 60.2027 56.4062H58.2027ZM55.1581 58.8464H39.0263V60.8464H55.1581V58.8464ZM39.0263 58.8464C37.7962 58.8464 37.0602 58.5814 36.6407 58.2247C36.2523 57.8942 35.9817 57.3527 35.9817 56.4062H33.9817C33.9817 57.7533 34.3852 58.9318 35.3449 59.7481C36.2737 60.5381 37.5599 60.8464 39.0263 60.8464V58.8464ZM35.9817 56.4062C35.9817 55.4883 36.2422 54.9692 36.6088 54.655L35.3072 53.1365C34.372 53.9381 33.9817 55.0926 33.9817 56.4062H35.9817ZM36.6088 54.655C36.9948 54.3242 37.7304 54.059 39.0263 54.059V52.059C37.5328 52.059 36.2229 52.3516 35.3072 53.1365L36.6088 54.655ZM39.0263 54.059H42.7919V52.059H39.0263V54.059ZM43.7919 53.059V36.2763H41.7919V53.059H43.7919ZM42.2854 35.4141L38.5662 37.5991L39.5793 39.3235L43.2985 37.1385L42.2854 35.4141ZM38.5657 37.5994C38.1774 37.8278 37.8084 37.9262 37.4456 37.9262V39.9262C38.1986 39.9262 38.9144 39.7147 39.5798 39.3232L38.5657 37.5994ZM37.4456 37.9262C36.9113 37.9262 36.437 37.7159 35.9824 37.1703L34.4459 38.4506C35.231 39.3927 36.2444 39.9262 37.4456 39.9262V37.9262ZM35.995 37.1858C35.5068 36.5755 35.2844 35.9404 35.2844 35.2535H33.2844C33.2844 36.4262 33.6818 37.4958 34.4333 38.4351L35.995 37.1858ZM35.2844 35.2535C35.2844 34.3321 35.6441 33.6978 36.426 33.2287L35.397 31.5137C34.0094 32.3463 33.2844 33.6335 33.2844 35.2535H35.2844ZM36.414 33.2358L43.8523 28.9122L42.8473 27.1831L35.409 31.5066L36.414 33.2358ZM43.8438 28.9171C45.1006 28.2031 46.217 27.8854 47.2084 27.8854V25.8854C45.7824 25.8854 44.3264 26.3426 42.8558 27.1782L43.8438 28.9171ZM47.2084 27.8854C48.2339 27.8854 48.9535 28.1852 49.4766 28.7083L50.8908 27.2941C49.9263 26.3295 48.6624 25.8854 47.2084 25.8854V27.8854ZM49.4912 28.7226C50.0338 29.2435 50.346 29.9706 50.346 31.023H52.346C52.346 29.5339 51.8833 28.2466 50.8763 27.2798L49.4912 28.7226ZM50.346 31.023V53.059H52.346V31.023H50.346ZM51.346 54.059H55.1581V52.059H51.346V54.059Z" fill="black" fill-opacity="0.14"/>
</g>
<defs>
<filter id="filter0_d" x="23.2843" y="20.8854" width="46.9183" height="54.961" filterUnits="userSpaceOnUse" color-interpolation-filters="sRGB">
<feFlood flood-opacity="0" result="BackgroundImageFix"/>
<feColorMatrix in="SourceAlpha" type="matrix" values="0 0 0 0 0 0 0 0 0 0 0 0 0 0 0 0 0 0 127 0"/>
<feOffset dy="5"/>
<feGaussianBlur stdDeviation="5"/>
<feColorMatrix type="matrix" values="0 0 0 0 0 0 0 0 0 0 0 0 0 0 0 0 0 0 0.39 0"/>
<feBlend mode="normal" in2="BackgroundImageFix" result="effect1_dropShadow"/>
<feBlend mode="normal" in="SourceGraphic" in2="effect1_dropShadow" result="shape"/>
</filter>
</defs>
</svg>

<svg width="91" height="90" fill="none" xmlns="http://www.w3.org/2000/svg"><circle cx="45.293" cy="44.887" r="44.887" fill="#3B72FF"/><g filter="url(#filter0_d)"><path d="M55.158 53.059c1.395 0 2.418.279 3.068.837.651.558.977 1.395.977 2.51 0 2.294-1.349 3.44-4.045 3.44H39.026c-2.696 0-4.044-1.146-4.044-3.44 0-1.115.325-1.952.976-2.51.65-.558 1.674-.837 3.068-.837h3.766V36.276l-3.72 2.185a3.17 3.17 0 0 1-1.626.465c-.868 0-1.612-.372-2.232-1.116-.62-.774-.93-1.627-.93-2.556 0-1.271.543-2.232 1.627-2.883l7.439-4.323c1.364-.775 2.65-1.163 3.858-1.163 1.24 0 2.232.372 2.976 1.116.775.744 1.162 1.751 1.162 3.022v22.036h3.812z" fill="#fff"/><path d="M58.226 53.896l-.65.759.65-.76zm-22.268 0l.65.759-.65-.76zm6.834-.837v1h1v-1h-1zm0-16.783h1V34.53l-1.507.885.507.862zm-3.72 2.185l-.506-.862.507.862zm-3.858-.65l-.78.624.006.008.006.008.768-.64zm.697-5.44l-.502-.865-.012.008.514.857zm7.439-4.323l-.494-.87-.009.005.503.865zM50.184 28l-.707.707.007.008.007.007.693-.722zm1.162 25.058h-1v1h1v-1zm3.812 1c1.296 0 2.032.265 2.418.596l1.301-1.519c-.916-.784-2.225-1.077-3.719-1.077v2zm2.418.596c.366.314.627.833.627 1.751h2c0-1.313-.39-2.468-1.326-3.27l-1.301 1.519zm.627 1.751c0 .947-.27 1.488-.66 1.819-.419.356-1.155.621-2.385.621v2c1.466 0 2.753-.308 3.681-1.098.96-.816 1.364-1.995 1.364-3.342h-2zm-3.045 2.44H39.026v2h16.132v-2zm-16.132 0c-1.23 0-1.966-.265-2.385-.621-.389-.33-.66-.872-.66-1.819h-2c0 1.347.404 2.526 1.364 3.342.929.79 2.215 1.098 3.681 1.098v-2zm-3.044-2.44c0-.918.26-1.437.627-1.751l-1.302-1.519c-.935.802-1.325 1.957-1.325 3.27h2zm.627-1.751c.386-.33 1.121-.596 2.417-.596v-2c-1.493 0-2.803.293-3.719 1.078l1.302 1.518zm2.417-.596h3.766v-2h-3.766v2zm4.766-1V36.276h-2V53.06h2zm-1.507-17.645L38.566 37.6l1.013 1.725 3.72-2.185-1.014-1.725zm-3.72 2.185a2.166 2.166 0 0 1-1.12.327v2c.754 0 1.47-.211 2.135-.603L38.566 37.6zm-1.12.327c-.534 0-1.008-.21-1.463-.756l-1.536 1.28c.785.943 1.798 1.476 3 1.476v-2zm-1.45-.74c-.488-.61-.71-1.246-.71-1.932h-2c0 1.172.397 2.242 1.148 3.181l1.562-1.25zm-.71-1.932c0-.922.36-1.556 1.141-2.025l-1.029-1.715c-1.388.832-2.113 2.12-2.113 3.74h2zm1.129-2.018l7.438-4.324-1.005-1.729-7.438 4.324 1.005 1.729zm7.43-4.319c1.257-.714 2.373-1.032 3.364-1.032v-2c-1.426 0-2.882.458-4.352 1.293l.988 1.74zm3.364-1.032c1.026 0 1.745.3 2.269.823l1.414-1.414c-.965-.965-2.229-1.409-3.683-1.409v2zm2.283.838c.543.52.855 1.248.855 2.3h2c0-1.49-.463-2.776-1.47-3.743l-1.385 1.443zm.855 2.3v22.036h2V31.023h-2zm1 23.036h3.812v-2h-3.812v2z" fill="#000" fill-opacity=".14"/></g><defs><filter id="filter0_d" x="23.284" y="20.885" width="46.918" height="54.961" filterUnits="userSpaceOnUse" color-interpolation-filters="sRGB"><feFlood flood-opacity="0" result="BackgroundImageFix"/><feColorMatrix in="SourceAlpha" values="0 0 0 0 0 0 0 0 0 0 0 0 0 0 0 0 0 0 127 0"/><feOffset dy="5"/><feGaussianBlur stdDeviation="5"/><feColorMatrix values="0 0 0 0 0 0 0 0 0 0 0 0 0 0 0 0 0 0 0.39 0"/><feBlend in2="BackgroundImageFix" result="effect1_dropShadow"/><feBlend in="SourceGraphic" in2="effect1_dropShadow" result="shape"/></filter></defs></svg>
